X:1
T:Title
%%score { 1 | 2 }
L:1/8
M:4/4
K:Bb
V:1 treble nm="Grand Piano"
V:2 bass 
V:1
 z4 z2[Q:1/4=116] F2 | [DB]3 [DB] [FB]2 c2 | d2 c2 B2 F2 | G2 [FB]2 [Fe]2 [Fd]2 | c6 F2 | %5
 [DB]3 [DB] [FB]2 c2 | d2 c2 B2 [DGB]2 | [CFA]2 [Fc]2 [=EB]2 [EG]2 | F6 F2 | E3 F d2 c2 | %10
 [DB]2 [B,D]2 [DF]2 [DF]2 | [EG]2 [FB]2 [Fe]2 [Fd]2 | [Fc]6 [Fc]2 | [Ff]2 e2 d2 c2 | %14
[M:9/8] =B2 [Gd]- [Gd] [Gc]2- [Gc] [Ge]2 |[M:4/4] [Fd]2 [Gc]2 [FB]2 [EA]2 |[M:3/4] [DB]6 |] %17
V:2
 z4 z2 F,2 | [B,,F,]3 [B,,F,] [D,B,]2 [F,A,F]2 | [B,F]2 [F,A,E]2 [G,B,D]2 [D,B,]2 | %3
 [E,B,E]2 [D,B,]2 [C,A,]2 [B,,B,]2 | [F,A,F]6 F,2 | [B,,F,]3 [B,,F,] [D,B,]2[K:treble] [F,A,F]2 | %6
 [B,F]2[K:bass] [^F,A,E]2 [G,B,D]2 B,,2 | C,2 [C,A,]2 [C,G,]2 [C,B,]2 | [F,A,]6 [F,B,D]2 | %9
 [F,A,C]3 [F,A,D] [F,A,F]2 [F,A,E]2 | [B,,B,]2 [B,,F,]2 [B,,B,]2 [B,,B,]2 | %11
 [E,B,]2 [D,B,]2 [C,A,]2 [B,,B,]2 | [F,A,]6 [E,A,]2 | [D,B,]2[K:treble] [F,A,F]2 [B,F]2 [_A,CF]2 | %14
[M:9/8] [G,DF]2[K:bass] [F,=B,]- [F,B,] [E,C]2- [E,C] [C,C]2 | %15
[M:4/4] [D,B,]2 [E,C]2 [F,D]2 [F,C]2 |[M:3/4] [B,,B,]6 |] %17

